X:102
T:Drumloist 
C:Joe Buchanan's Scottish Tome - Page 129.0
I:129 0
C:Jim Johnstone
R:Jig
Z:Carl Allison
L:1/8
M:6/8
K:D
fe | "D" d3 "A" A>dg | "D" f3 "A" d3 | "Em" B2 e "Bm" e2 f | "Em" g>ed "A7" c>BA |
"D" d3 "A" A>dg | "D" f3 "A" d2 c | "G" B>cd "A7" e>cA | "D" d2 d :|
fg | "D" a3 "A" f>ed | "D" a>Aa "A" f>ed | "Em" g2 B "Bm" B>cd | "Em" efd "A7" c>BA |
"D" a3 "A" f>ed | "D" a>Aa "A" fed | "G" B>cd "A7" ecA | "D" d3 d :|
fe | "D" d>AA "G" B>dg | "D" f>ag "A" f>ed | "Em" B>ee "Bm" e2 f | "Em" ged "A7" c>BA |
"D7" d>AA "G" B>dg | "D" f>af "D" f>ed | "G" B>ed "A7" c>Bc | "D" d3 d :|
fg | "D" a>Aa "A" f>ed | "D" f>ag "A" f>ed | "Em" g>BB "Bm"B>cd | "Em" e>fd "A7" c>BA |
"D" a>Aa "A" f>ed | "D" f>ag "A" f>ed | "G" B>ed "A7" cBc | "D" d3 d :|

